X: 134
T: No_5_Song_of_an_Unsatisfied_Warrior.krn
%%abc-version 2.0
%%abcx-abcm2ps-target-version 5.9.1 (29 Sep 2008)
%%abc-creator hum2abc beta
%%abcx-conversion-date 2020/08/10 18:54:57
%%gracespace 0 6 6
%%humdrum-veritas 2904784184
%%humdrum-veritas-data 2742790044
%%linebreak <none>
%%barnumbers 0
L: 1/8
M: 2/4
%%staves {1 2}
V: 1 clef=bass
V: 2 clef=bass
K: Bb
[V:1] [K:clef=bass][M:2/4]DD DB,3//G,// ||  
[V:2] [K:clef=bass][M:2/4]G,,G,, G,,G,, ||  
[V:1] [M:3/4]B,>G,G,2G,2 ||  
[V:2] [M:3/4]G,,G,, G,,G,, G,,G,, ||  
[V:1] [M:2/4]B,B, B,G,3//E,// ||  
[V:2] [M:2/4]z4 ||  
[V:1] [M:3/4]G,>D,D,2D,2 | 
[V:2] [M:3/4]z6 | 
[V:1] [M:2/4]G,G, G,F,3//D,// ||  
[V:2] [M:2/4]z4 ||  
[V:1] [M:3/4]F,>D,D,2F,2 ||  
[V:2] [M:3/4]z6 ||  
[V:1] [M:2/4]D,3D, | 
[V:2] [M:2/4]z4 | 
[V:1] D,4 |]  
[V:2] z4 |]  


